X:35
T:Ballydesmond Polkas - No. 1
R:polka
Z:Jaya R. Carl, August 27, 2006
M:2/4
L:1/8
K:Ador
(G/2 |:"Am"EA)AB | (cd)(eg) | "G"G2 G>(A | G)"Em"(E{G}ED) |
"Am"(EA)(AB) | (cd) e(e/2f/2 | "(Em)"ge)"G"(dB) |[1 "Am"A2 AG:|[2 "Am"A2 Ag ||
|:"Am" a2 a>(b | a)gef | "G"g2 g>(a | "Em"g)ede |
"Am"a2 a>(b |"Am" a)(g e)(e/2f/2 | "Em"ge)"G"(dB) | "Am"A2 A2 :|
